src/assets/css3.svg

<svg width="57" height="64" viewBox="0 0 57 64" fill="none" xmlns="http://www.w3.org/2000/svg">
<path d="M56.7057 0L51.5857 57.6L28.5 64L5.41431 57.6L0.294312 0H56.7057ZM13.0029 36.5714L13.9857 47.68L28.5 51.7714L42.9686 47.7714L46.1686 11.7714H10.7857L11.4257 18.8343H38.42L37.78 26.08H12.0657L12.6829 33.1429H37.1857L36.3629 42.2857L28.5 44.4343L20.6143 42.3086L20.0886 36.5714H13.0029Z" fill="#111F4C"/>
</svg>

<svg xmlns="http://www.w3.org/2000/svg" width="57" height="64" fill="none" xmlns:v="https://vecta.io/nano"><path d="M56.706 0l-5.12 57.6L28.5 64 5.414 57.6.294 0h56.411zM13.003 36.571l.983 11.109L28.5 51.771l14.469-4 3.2-36H10.786l.64 7.063H38.42l-.64 7.246H12.066l.617 7.063h24.503l-.823 9.143-7.863 2.149-7.886-2.126-.526-5.737h-7.086z" fill="#4a4970"/></svg>
